!!!!SEGMENT: pl-wn--sd-xvi-o-264_lubelczyk-jakub--kancjonal-zamoyskich-piesn-o-zmartwychwstaniu-panskim-wesel-sie-tej-to-chwile-ludzkie-pokolenie.krn
!!!cenid: 15xx:820
!!!COM: Lubelczyk, Jakub
!!!COM-rismID: pe30012551
!!!CDT: >1500-<1599
!!!CNT:
!!!GTL: Kancjonał Zamoyskich
!!!OTL: Pieśń o zmartwychwstaniu Pańskim/Wesel się tej to chwile ludzkie pokolenie
!!!PDT: 1558
!!!AGN:
!!!SMS-siglum: PL-Wn
!!!SMS-shelfmark: SD XVI.O.264
!!!SMS-shelfwork: G
!!!SMS-variant:
!!!SMS-altvar:
!!!NIFC-rismSourceID: 990038530
!!!NIFC-rismChildID: 990038530
!!!NIFC-islandoraID:
!!!URL-pdf-islandora:
!!!URL-scan: https://polona.pl/item/piesn-o-zmartwychwstaniu-panskim-wesel-sie-teyto-chwile-ludzkie-pokolenie,MTE3MTQzOQ/3 @EN{Scan on Polona} @PL{Skany w portalu Polona}
!!!ONB-nifc: UWAGA: proszę zapisywać tylko teksty występujące bezpośrednio pod nutami
!!!AIN: 1 alto 1 bass 1 soprn 1 tenor
!!!key: C:ion
**kern	**text	**mod-text	**kern	**text	**mod-text	**kern	**text	**mod-text	**kern	**text	**mod-text
*part4	*part4	*part4	*part3	*part3	*part3	*part2	*part2	*part4	*part1	*part1	*part4
*staff4	*staff4	*staff4	*staff3	*staff3	*staff3	*staff2	*staff2	*staff4	*staff1	*staff1	*staff4
*I"BASS.	*	*	*I"TENOR.	*	*	*I"ALT.	*	*	*I"CANT.	*	*
*I'B	*	*	*I'T	*	*	*I'A	*	*	*I'S	*	*
*Ibass	*	*	*Itenor	*	*	*Ialto	*	*	*Isoprn	*	*
*ICvox	*	*	*ICvox	*	*	*ICvox	*	*	*ICvox	*	*
*mI"Basso	*	*	*mI"Tenore II	*	*	*mI"Tenore I	*	*	*mI"Alto	*	*
*	*	*	*mI'T 2	*	*	*mI'T 1	*	*	*mI'A	*	*
*clefF4	*	*	*clefC4	*	*	*clefC3	*	*	*clefC1	*	*
*	*	*	*mclefGv2	*	*	*mclefGv2	*	*	*mclefG2	*	*
*k[]	*	*	*k[]	*	*	*k[]	*	*	*k[]	*	*
*C:ion	*	*	*C:ion	*	*	*C:ion	*	*	*C:ion	*	*
!LO:MO:null:mod=*M2/1	!	!	!	!	!	!	!	!	!	!	!
*	*	*	*M2/1	*	*	*M2/1	*	*	*M2/1	*	*
!LO:MO:null:mod=*met(c|)	!	!	!	!	!	!	!	!	!	!	!
*	*	*	*met(C|)	*	*	*met(C|)	*	*	*met(C|)	*	*
*	*	*	*mmet(c|)	*	*	*mmet(c|)	*	*	*mmet(c|)	*	*
=1-	=1-	=1-	=1-	=1-	=1-	=1-	=1-	=1-	=1-	=1-	=1-
*xywh-#6:787,2000,1946,597	*	*	*xywh-#5:2800,341,2200,875	*	*	*xywh-#6:423,397,2295,878	*	*	*xywh-#5:595,326,2050,818	*	*
!	!	!	!	!	!	!LO:TX:t=P:problem:kreski taktowe wpisane odręcznie	!	!	!	!	!
2r	.	.	2r	.	.	2r	.	.	2r	.	.
!	!	!	!	!	!	!LO:TX:t=P:problem:odręczna poprawka: 2G\	!	!	!	!	!
2C/	.	[We-	2C/	We-	We-	2c/	We-	We-	2g/	We-	We-
2C/	.	-sel	2G/	-ſel	-sel	2c/	-ſel	-sel	2e/	-ſel	-sel
2E\	.	się	2G/	ſie	się	2B/	ſie	się	2g/	ſie	się
=2-	=2-	=2-	=2-	=2-	=2-	=2-	=2-	=2-	=2-	=2-	=2-
2F\	.	tej	2A/	tey	tej	2A/	tey	tej	2f/	tey	tej
2G\	.	to	2B/	to	to	2G/	to	to	2d/	to	to
1C	.	chwi-	1c	chwi-	chwi-	1G	chwi-	chwi-	1e	chwi-	chwi-
=3-	=3-	=3-	=3-	=3-	=3-	=3-	=3-	=3-	=3-	=3-	=3-
!	!	!	!	!	!	!LO:TX:t=P:problem:kreska pseudotaktowa	!	!	!	!	!
1C	.	-lę	1c	-le/	-lę	1G	-le	-lę	1e	-le	-lę
1C	.	ludz-	1e	ludz-	ludz-	1g	ludz-	ludz-	1cc	ludz-	ludz-
*	*	*	*custos:d	*	*	*	*	*	*custos:b	*	*
=4-	=4-	=4-	=4-	=4-	=4-	=4-	=4-	=4-	=4-	=4-	=4-
!	!	!	!LO:LB:g=original	!	!	!	!	!	!LO:LB:g=original	!	!
*	*	*	*xywh-#5:2795,1170,1952,599	*	*	*	*	*	*xywh-#5:785,1121,1855,564	*	*
2GG/	.	-kie	2d\	-kie	-kie	2g\	-kie	-kie	2b\	-kie	-kie
1AA	.	po-	1c	po-	po-	1e	etcet.	[po-	1a	po-	po-
2BB/	.	-ko-	2B\	-ko-	-ko-	2d\	.	-ko-	1g\	-ko-	-ko-
=5-	=5-	=5-	=5-	=5-	=5-	=5-	=5-	=5-	=5-	=5-	=5-
2C/	.	-le-	1A	-le-	-le-	2e\	.	-le-	.	.	-le-
2D/	.	.	.	.	.	2d\	.	.	2f/	-le-	.
!	!	!	!	!	!	!LO:TX:t=P:problem:kreska pseudotaktowa	!	!	!	!	!
1GG	.	-nie	1G	-nie/	-nie	1B	.	-nie	1g	-nie/	-nie
=6-	=6-	=6-	=6-	=6-	=6-	=6-	=6-	=6-	=6-	=6-	=6-
2G\	.	sław	2G/	ſlaẃ	sław	2d\	.	sław	2g/	ſlaẃ	sław
*	*	*	*	*	*	*custos:d	*	*	*	*	*
!	!	!	!	!	!	!LO:LB:g=original	!	!	!	!	!
*	*	*	*	*	*	*xywh-#6:787,1256,1897,407	*	*	*	*	*
2G\	.	z pa-	2G/	s pá-	z pa-	2d\	.	z pa-	2g/	s pá-	z pa-
2E\	.	-mią-	2B/	-mią-	-mią-	2e\	.	-mią-	2g/	-mią-	-mią-
*custos:E	*	*	*	*	*	*	*	*	*	*	*
!LO:LB:g=original	!	!	!	!	!	!	!	!	!	!	!
*xywh-#6:831,2578,1883,398	*	*	*	*	*	*	*	*	*	*	*
2E\	.	-tką	2B/	-tką	-tką	2e\	.	-tką	2g/	-tką	-tką
*	*	*	*	*	*	*	*	*	*custos:e	*	*
=7-	=7-	=7-	=7-	=7-	=7-	=7-	=7-	=7-	=7-	=7-	=7-
!	!	!	!	!	!	!	!	!	!LO:LB:g=original	!	!
*	*	*	*	*	*	*	*	*	*xywh-#5:780,1651,1878,593	*	*
1C	.	mi-	1c	mi-	mi-	1g	.	mi-	1e	mi-	mi-
*	*	*	*custos:G	*	*	*	*	*	*	*	*
!	!	!	!LO:LB:g=original	!	!	!	!	!	!	!	!
*	*	*	*xywh-#5:2789,1718,1981,576	*	*	*	*	*	*	*	*
1C	.	-le	1G	-le	-le	1e	.	-le	1g	-le	-le
=8-	=8-	=8-	=8-	=8-	=8-	=8-	=8-	=8-	=8-	=8-	=8-
1F	.	Kry-	1A	Kry-	Kry-	1.c	.	Kry-	1f	Kry-	Kry-
2C/	.	-sto-	2G/	-ſto-	-sto-	.	.	.	2e/	-ſto-	-sto-
2D/	.	.	1F/	-wo	-wo	2A/	.	-sto-	1d/	-wo	-wo
=9-	=9-	=9-	=9-	=9-	=9-	=9-	=9-	=9-	=9-	=9-	=9-
2BB-X/	.	-wo	.	.	.	2B-X/	.	-wo	.	.	.
2C/	.	wskrze-	2E/	wſkrze-	wskrze-	2G/	.	wskrze-	1c	wſkrze-	wskrze-
1GG	.	-sze-	1D	-ſſe-	-sze-	1G	.	-sze-	.	.	.
.	.	.	.	.	.	.	.	.	2B/	-ſſe-	-sze-
=10-	=10-	=10-	=10-	=10-	=10-	=10-	=10-	=10-	=10-	=10-	=10-
0G	.	-nie	0C	-nie/	-nie	0E	.	-nie	0c	-nie/	-nie
=11-	=11-	=11-	=11-	=11-	=11-	=11-	=11-	=11-	=11-	=11-	=11-
1C	.	Bo-	1c	Bo-	Bo-	1e	.	Bo-	1g	Bo-	Bo-
*	*	*	*	*	*	*	*	*	*custos:b	*	*
!	!	!	!	!	!	!	!	!	!LO:LB:g=original	!	!
*	*	*	*	*	*	*	*	*	*xywh-#5:678,2162,1976,622	*	*
2G\	.	-wiem	1d	-wiem	-wiem	2d\	.	-wiem	2b\	-wim	-wiem
2D/	.	.	.	.	.	1f\	.	gdy	1a\	gdy	gdy
*	*	*	*custos:c	*	*	*	*	*	*	*	*
=12-	=12-	=12-	=12-	=12-	=12-	=12-	=12-	=12-	=12-	=12-	=12-
!	!	!	!LO:LB:g=original	!	!	!	!	!	!	!	!
*	*	*	*xywh-#5:2793,2259,1958,576	*	*	*	*	*	*	*	*
2F\	.	gdy	2c\	gdy	gdy	.	.	.	.	.	.
2G\	.	zmar-	2B\	zmar-	zmar-	2e\	.	zmar-	1g	zmar-	zmar-
1D	.	-twych-	1A	-tw(ych-	-tw[ych-	1d	.	-twych-	.	.	.
.	.	.	.	.	.	.	.	.	2f/	-(twych)-	-[twych]-
=13-	=13-	=13-	=13-	=13-	=13-	=13-	=13-	=13-	=13-	=13-	=13-
0GG	.	-wstał	0G	-wstał)	-wstał]	0d	.	-wstał	0g	-w(stał)	-w[stał]
*custos:G	*	*	*	*	*	*custos:d	*	*	*	*	*
=14-	=14-	=14-	=14-	=14-	=14-	=14-	=14-	=14-	=14-	=14-	=14-
!LO:LB:g=original	!	!	!	!	!	!LO:LB:g=original	!	!	!	!	!
*xywh-#6:821,2937,1907,504	*	*	*	*	*	*xywh-#6:792,1645,1902,388	*	*	*	*	*
2G\	.	jak	2G/	iák	jak	2d\	.	jak	2g/	iák	jak
2G\	.	Pan	2G/	Pan	Pan	2d\	.	Pan	2g/	Pan	Pan
2E\	.	wszech-	2B/	wſſech-	wszech-	2e\	.	wszech-	2g/	wſſech-	wszech-
2E\	.	-mo-	2B/	-mo-	-mo-	2e\	.	-mo-	2g/	-mo-	-mo-
*	*	*	*	*	*	*	*	*	*custos:e	*	*
=15-	=15-	=15-	=15-	=15-	=15-	=15-	=15-	=15-	=15-	=15-	=15-
!	!	!	!	!	!	!	!	!	!LO:LB:g=original	!	!
*	*	*	*	*	*	*	*	*	*xywh-#5:684,2738,1987,570	*	*
1C	.	-gą-	1c	-gą-	-gą-	1g	.	-gą-	1e	-gą-	-gą-
*	*	*	*custos:G	*	*	*	*	*	*	*	*
!	!	!	!LO:LB:g=original	!	!	!	!	!	!	!	!
*	*	*	*xywh-#5:2804,2806,1952,679	*	*	*	*	*	*	*	*
1C	.	-cy	1G	-cy/	-cy	1e	.	-cy	1g	-cy/	-cy
=16-	=16-	=16-	=16-	=16-	=16-	=16-	=16-	=16-	=16-	=16-	=16-
4FF/	.	wiecz-	1A	wiecż-	wiecz-	1c	.	wiecz-	1f	wie-	wiecz-
4GG/	.	.	.	.	.	.	.	.	.	.	.
4AA/	.	.	.	.	.	.	.	.	.	.	.
4BBny/	.	.	.	.	.	.	.	.	.	.	.
2C/	.	-ny	2G/	-ny	-ny	2A/	.	-ny	2e/	-cżny	-ny
2D/	.	nam	1F/	nam	nam	1B-X/	.	nam	1d/	nam	nam
=17-	=17-	=17-	=17-	=17-	=17-	=17-	=17-	=17-	=17-	=17-	=17-
!LO:SIC:v:s=2BB-/	!	!	!	!	!	!	!	!	!	!	!
2BB/	.	.	.	.	.	.	.	.	.	.	.
2C/	.	ży-	2E/	ży-	ży-	2G/	.	ży-	1c	ży-	ży-
1GG	.	-wot	1D	-wot	-wot	1G	.	-wot	.	.	.
.	.	.	.	.	.	.	.	.	2B/	-wot	-wot
=18-	=18-	=18-	=18-	=18-	=18-	=18-	=18-	=18-	=18-	=18-	=18-
0Cl/	.	dał.]	0Cl/	dał.	dał.	0Gl/	.	dał.]	0cl/	dał.	dał.
==	==	==	==	==	==	==	==	==	==	==	==
*-	*-	*-	*-	*-	*-	*-	*-	*-	*-	*-	*-
!!!system-decoration: [(s1,s2,s3,s4)]
!!!RDF**kern: > = above
!!!RDF**kern: < = below
!!LO:MO:ori
!!!RDF**kern: l = terminal long
!!LO:MO:end
!!!filter-modern: sic -sq | shed -e "s/TX(.*):t=P:/tx$1:t=P:/LG" | shed -e "s/tx(.*):t=P:/tx$1:t=P:/LG" | shed -k -e "s/LO:N:vis/LO:n:vis:/L" | shed -e "s/^(\d+[\/\\]right)/$1yy/I;s/^(\d+[\/\\]left)/$1yy/I" | shed -e "s/-//B" | shed -e "s/^custos:/Xcustos:/I" | shed -k -e "s/LO:N:acc/LO:n:acc:/L" | autostem -r | tie -s | humtr -p | modori -m
!!!ENC: Katarzyna Serwa
!!!END: 2022-05-09
!!!ENC: Mateusz Solarz
!!!END: 2022-04-26
!!!ENC-modern: Andrzej Borzym
!!!END-modern: 2022-07-23
!!!IIIF: https://polona.pl/iiif/item/MTE3MTQzOQ/manifest.json
!!!ENC-iiif: Emilia Ziętek
!!!END-iiif: 2022-09-03
!!!YEC: Copyright 2022 Narodowy Instytut Fryderyka Chopina (https://polishscores.org)
!!!YEM: License CC-BY-4.0 (https://creativecommons.org/licenses/by/4.0)
